X:1
T:Title
%%score { ( 1 3 4 ) | ( 2 5 ) }
L:1/8
M:4/4
K:Ab
V:1 treble nm="Grand Piano"
V:3 treble 
V:4 treble 
V:2 bass 
V:5 bass 
V:1
 z4 z2[Q:1/4=100] [Ec]2 | [Dd]2 [Ec]2 [DB]2 [EA]2 | c4 z4 | [EAe]4 [FAd]2 [EGd]2 |[M:3/4] [EAc]6 | %5
[M:1/4] [Ec]2 |[M:4/4] [Dd]2 [Ec]2 [EB]2 [EA]2 | G4 z4 | [C=DA]4 [B,DG]2 [A,DF]2 |[M:3/4] [G,E]6 | %10
[M:1/4] E2 |[M:4/4] B4 A2 G2 | c3 B A2 E2 | [FGd]2 [Ac]2 [DEB]2 [CEA]2 |[M:3/4] [Ee]6 |[M:1/4] e2 | %16
[M:4/4] e2 c2 B2 A2 | f4 z4 | e2 z2 z4 |[M:7/4] [CA]6 z2 z2 z4 |[M:4/4] [FAd]8 | [EAc]8 |] %22
V:2
 z4 z2 [A,,E,]2 | [A,,F,]2 [A,,E,]2 [B,,G,]2 [C,A,]2 | [E,E]4 z4 | C4 B,2 E,2 |[M:3/4] A,6 | %5
[M:1/4] [A,,A,]2 |[M:4/4] [A,,F,]2 [A,,E,]2 [B,,G,]2 [C,A,]2 | [E,CD]4 [F,A,C]2 [A,,F,]2 | %8
 B,,4 B,,2 B,,2 |[M:3/4] E,6 |[M:1/4] E,2 |[M:4/4] [E,DE]4 [E,CE]2 [E,B,E]2 | E3 D [E,CE]2 E,2 | %13
 z2 E2 E,2 E,2 |[M:3/4] [E,G,]2 F,2 G,2 |[M:1/4][K:treble] [B,DG]2 | %16
[M:4/4] [A,_G]2- [A,EG]2 [A,DG]2 [A,CG]2 | [D,D]4 [E,C]2 [F,_C]2 | C2 z2 z4 | %19
[M:7/4] A,,6 z2 z2 z4 |[M:4/4] [D,A,]8 | [A,,A,]8 |] %22
V:3
 x8 | x8 | z2 z B [A,CA]2 [CEA]2 | x8 |[M:3/4] x6 |[M:1/4] x2 |[M:4/4] x8 | z2 z B, A2 [CA]2 | x8 | %9
[M:3/4] x6 |[M:1/4] x2 |[M:4/4] x8 | x8 | x8 |[M:3/4] z2 A,2 B,2 |[M:1/4] x2 |[M:4/4] x8 | %17
 F2 A2 [Ae]2 [A=d]2 | A2- [Ac]2 [=DAB]2 [_DGB]2 |[M:7/4] x14 |[M:4/4] x8 | x8 |] %22
V:4
 x8 | x8 | z2 G,2 z4 | x8 |[M:3/4] x6 |[M:1/4] x2 |[M:4/4] x8 | x8 | x8 |[M:3/4] x6 |[M:1/4] x2 | %11
[M:4/4] x8 | x8 | x8 |[M:3/4] x6 |[M:1/4] x2 |[M:4/4] x8 | x8 | x8 |[M:7/4] x14 |[M:4/4] x8 | x8 |] %22
V:5
 x8 | x8 | F,2 z D A,,2 A,2 | x8 |[M:3/4] x6 |[M:1/4] x2 |[M:4/4] x8 | x8 | x8 |[M:3/4] x6 | %10
[M:1/4] x2 |[M:4/4] x8 | E,4 z4 | E,4 z4 |[M:3/4] x6 |[M:1/4][K:treble] x2 |[M:4/4] C2 z2 z4 | x8 | %18
 E,2- [E,E]2 F,2 E,2 |[M:7/4] x14 |[M:4/4] x8 | x8 |] %22

